X: 6470
T: Cat In The Corner, The
R: jig
M: 6/8
K: Dmixolydian
|:E|~F3 DFA|dAF AFD|~E3 CEG|cGE CEG|
~F3 DFA|dAF AFD|GFG EFG|AFD D2:|
K: D
e|:f2d dcd|afd de=f|e2=c cBc|gec efg|
[1 f2d dcd|afd def|~g3 efg|afd dag:|
[2 agf g2f|fed ecA|GFG EFG|AFD D2||

